X:1
T:Building for Eternity
T:Building for Eternity
T:N. B. Sargent
T:N. B. Sargent, 1887
T:Public Domain Courtesy of the Cyber Hymnal™
C:N. B. Sargent
Z:Public Domain
Z:Courtesy of the Cyber Hymnal™
%%score ( 1 2 ) ( 3 4 )
L:1/8
Q:1/4=95
M:6/8
K:E
V:1 treble 
V:2 treble 
V:3 bass 
V:4 bass 
V:1
 E/[EF]/ | [EG][EG][EG] ([EG][EG])[DF] | E3 z2 ([EG]/[FA]/) | ([GB][GB])[GB] ([Ae][Ae])[Ac] | %4
w: 1.~We are|build- ing in sorrow * or|joy, A *|temple * the world~may * not|
w: 2.~Ev- ery|thought that we’ve ev- * er|had, Its *|own~lit- * tle place * has|
w: 3.~Ev- ery|word that so light- * ly|falls, Giving *|some * heart joy * or|
w: 4.~Are you|build- ing for God * a-|lone? Are~you *|building * in faith * and|
 [GB]3 z2 ([GB]/[FA]/) | [EG][EG][EG] ([EG][EA])[EB] | [Ec]3 z2 (!fermata![EA]/!fermata![CF]/) | %7
w: see, Which *|time can- not mar~nor * de-|stroy: We *|
w: filled; Every *|deed we have done,~good * or|bad, Is~a *|
w: pain, Will *|shine in our tem- * ple|walls, Or *|
w: love A *|tem- ple the Father * will|own, In~the *|
 [B,E][B,D][B,E] ([DG][DG])[DF] | E3- E2 ||"^Refrain" [EG]/[FA]/ | [GB]2 [EG] [EG]2 [EB] | %11
w: build for e- ter- * ni-|ty. *|||
w: stone in the temple * we|build. *|We are|build- ing ev- ery|
w: ev- er its beau- * ty|stain. *|||
w: ci- ty of light * a-|bove? *|||
 E3- [B,E]2 [B,E] | [DF][DF][DF] [DF][EG][FA] | [EG]3- [EG]2 z | [Ge]2 [GB] [GB]2 [EG] | %15
w: ||||
w: day A tem-|* ple the world may not|see, *|Build- ing, build- ing|
w: ||||
w: ||||
 [B,E]2 B, !fermata![B,E]2 E/E/ | [EF]2 [EF] [EG]2 [DF] | E3- E2 |] %18
w: |||
w: ev- ery day, Build- ing|for e- ter- ni-|ty. *|
w: |||
w: |||
V:2
 E/ x/ | x6 | E3 x3 | x6 | x6 | x6 | x6 | x6 | E3- E2 || x | x6 | B,2 C x3 | x6 | x6 | x6 | %15
 x2 B, x E/E/ x | x6 | E3- E2 |] %18
V:3
 [E,G,]/[E,A,]/ | [E,B,][E,B,][E,B,] ([B,,B,][B,,B,])[B,,A,] | [E,G,]3 z2 ([E,B,]/[E,B,]/) | %3
 ([E,E][E,E])[E,E] ([A,,C][A,,C])[A,,E] | [E,E]3 z2 ([E,B,]/[E,B,]/) | %5
 [E,B,][E,B,][E,B,] B,[C,A,][B,,G,] | [A,,A,]3 z2 ([A,,C]/[A,,A,]/) | %7
 [B,,G,][B,,F,][B,,G,] ([B,,B,][B,,B,])[B,,A,] | [E,G,]3- [E,G,]2 || [E,B,]/[E,B,]/ | %10
 [E,E]2 [E,B,] [E,B,]2 [E,G,] | (G,2 A, [E,G,]2) [E,G,] | %12
 [B,,B,][B,,B,][B,,B,] [B,,B,][B,,B,][B,,B,] | [E,B,]3- [E,B,]2 z | [E,B,]2 [E,E] [E,E]2 [E,B,] | %15
 [G,B,]2 [F,A,] !fermata![E,G,]2 [G,,B,]/[G,,B,]/ | [A,,C]2 [^A,,C] [B,,B,]2 [B,,^A,] | %17
 [E,G,]3- [E,G,]2 |] %18
V:4
 x | x6 | x6 | x6 | x6 | x3 (E,/=D,/) x2 | x6 | x6 | x5 || x | x6 | E,3- x3 | x6 | x6 | x6 | x6 | %16
 x6 | x5 |] %18

